X: 3166
T: COOKIE SHINE
Q: "Reel."
R: Reel.
%R: reel
B: James Kerr "Merry Melodies" v.3 p.20 #166
Z: 2016 John Chambers <jc:trillian.mit.edu>
M: C
L: 1/8
K: F
|:\
  vc2(AB) cfef | cBAB c2A2 |\
[1 d2(Bc) dgga | bagf edc=B :|\
[2 dgga   bagf | ecde f2 ||
|: (AB) |\
   cAfA cAAB | cAfA c2(BA) |\
[1 dBgB dBBc | dBgB d2 :|\
[2 dgga bagf | ecde f2a2 |]

%%sep 1 1 500
%%sep 1 1 500

